**kern	**kern	**dynam
*part1	*part1	*part1
*staff2	*staff1	*
*I"Piano	*	*
*clefF4	*clefG2	*
*k[]	*k[]	*
=1	=1	=1
*	*^	*
!	!	!	!LO:DY:a
4EE 4E	2g 2gg	8raa	f >
.	.	4cc 4ee	.
4E 4G 4c	.	.	]]
.	.	8cc 8ee	.
=	=	=	=
4BBB 4BB	2G 2g	8rg	p
.	.	4d 4f	.
4BB 4D	.	.	.
.	.	8d 8f	.
*	*v	*v	*
=	=	=
4CC 4C	8G^^L 8g	.
.	8c 8e	p
4DD 4D	8G#X^^ 8g#X	.
.	8BJ 8e	.
=	=	=
4CC 4C	8AL 8a	<
.	8c 8e	.
4GGG#X 4GG#X	8B 8b	.
.	8dJ 8e	.
=	=	=
4AAA 4AA	8cL 8cc	.
.	8e 8a	.
4GGGn 4GGn	8c#X 8cc#X	.
.	8eJ 8a	[
=	=	=
4FFF 4FF	8dL 8dd	.
.	8f 8a	.
!	!	!LO:DY:a
4DDD 4DD	8a 8aa	f
.	8ddJ 8ff	.
=	=	=
*	*^	*
!	!	!	!LO:DY:a
8GGG 8GG	2a 2aa	8raa	ff
8r	.	4b 4dd	.
4G 4d 4f	.	.	.
.	.	8b 8dd	.
=	=	=	=
4r	2B 2b	8r	.
.	.	4d 4f	.
4GG 4G	.	.	.
.	.	8d 8f	.
*	*v	*v	*
=	=	=
*-	*-	*-
!!!system-decoration: {(s1,s2)}
